X: 779
T: Zhankai dashengchan
%%abc-version 2.0
%%abcx-abcm2ps-target-version 5.9.1 (29 Sep 2008)
%%abc-creator hum2abc beta
%%abcx-conversion-date 2013/10/02 07:52:30
%%abc-edited-by Helmut Schaffrath
%%humdrum-veritas 3118081539
%%humdrum-veritas-data 1953919094
%%continueall 1
%%barnumbers 0
L: 1/8
M: 2/4
K: Bb
c'> c' c' c' [I:setbarnb 1]| 
c'2b g | 
c'3d' | 
c'2z2 | 
b2b2 | 
c'2b g | 
f3e | 
f4 | 
f2g b | 
c'2f' d' | 
g b g f | 
e3f | 
b2a g | 
f2b d | 
c3B | 
c4 |]  



